build/Karasa-Jaga/scalable/actions/go-up-symbolic.svg

<svg height="16" width="16" xmlns="http://www.w3.org/2000/svg"><path d="m13.748047 8.8027341-5.7480473-7.87499989c-.0052.0014-.010406.0027-.015625.0039l-5.7324215 7.85938489 1.05664 1.0566406 2.337891-2.3378906c.5917054-.5916105 1.6033244-2.1726719 1.6035155-1.3359413v8.8984382h1.4902344v-8.9257819c.0001876-.8367329 1.0118089.7443254 1.6035159 1.3359375l2.349609 2.3496094z" fill="#bebebe"/></svg>

<?xml version="1.0" encoding="UTF-8" standalone="no"?>
<!-- Created with Inkscape (http://www.inkscape.org/) -->

<svg
   xmlns:dc="http://purl.org/dc/elements/1.1/"
   xmlns:cc="http://creativecommons.org/ns#"
   xmlns:rdf="http://www.w3.org/1999/02/22-rdf-syntax-ns#"
   xmlns:svg="http://www.w3.org/2000/svg"
   xmlns="http://www.w3.org/2000/svg"
   xmlns:sodipodi="http://sodipodi.sourceforge.net/DTD/sodipodi-0.dtd"
   xmlns:inkscape="http://www.inkscape.org/namespaces/inkscape"
   width="16px"
   height="16px"
   id="svg13294"
   version="1.1"
   inkscape:version="0.92.2 (unknown)"
   sodipodi:docname="go-up-symbolic.svg">
  <defs
     id="defs13296" />
  <sodipodi:namedview
     id="base"
     pagecolor="#ffffff"
     bordercolor="#666666"
     borderopacity="1.0"
     inkscape:pageopacity="0.0"
     inkscape:pageshadow="2"
     inkscape:zoom="16"
     inkscape:cx="2.4692807"
     inkscape:cy="7.2323592"
     inkscape:current-layer="layer1"
     showgrid="true"
     inkscape:grid-bbox="true"
     inkscape:document-units="px"
     inkscape:window-width="1366"
     inkscape:window-height="697"
     inkscape:window-x="0"
     inkscape:window-y="0"
     inkscape:window-maximized="1" />
  <metadata
     id="metadata13299">
    <rdf:RDF>
      <cc:Work
         rdf:about="">
        <dc:format>image/svg+xml</dc:format>
        <dc:type
           rdf:resource="http://purl.org/dc/dcmitype/StillImage" />
        <dc:title></dc:title>
      </cc:Work>
    </rdf:RDF>
  </metadata>
  <g
     id="layer1"
     inkscape:label="Layer 1"
     inkscape:groupmode="layer">
    <path
       style="color:#000000;display:inline;overflow:visible;visibility:visible;fill:#bebebe;fill-opacity:1;fill-rule:nonzero;stroke:none;stroke-width:1;marker:none;enable-background:accumulate"
       d="M 13.748047,8.8027341 7.9999997,0.92773421 c -0.0052,0.0014 -0.010406,0.0027 -0.015625,0.0039 L 2.2519532,8.7910191 3.3085932,9.8476597 5.6464842,7.5097691 C 6.2381896,6.9181586 7.2498086,5.3370972 7.2499997,6.1738278 V 15.072266 H 8.7402341 V 6.1464841 C 8.7404217,5.3097512 9.752043,6.8908095 10.34375,7.4824216 l 2.349609,2.3496094 z"
       id="path29297"
       inkscape:connector-curvature="0"
       sodipodi:nodetypes="ccccccccccccc" />
  </g>
</svg>
